X: 161937
T: Pat Murphy the Piper
S: "Roche Collection of Traditional Irish Music" [II/59/337]
L: 1/8
M: 9/8
R: slip jig
K: D
A | Add dcd efg | afd Bee cAA |
Add dcd Bcd | efe dcB AFG |
Add dcd efg | afd Bee cAA |
Add dcd efg | afa gec d2 ||
B | AFA Gec d2B | AFA GFE D2B | 
AFA GEc d2e | fff fec d2B | 
AFA Gec d2B | AFA GFE D2B | 
AFA GEa a2g | fdf gec d2 |]
